X: 26
T: Pollonesse #26
M: 3/4
L: 1/16
K: D
Q:120
B2FB d2d2 d4|d2Bd f2f2 f4|f2af d2fd B2d2|cdcB ABAG F4|B2FB d2d2 d4|d2Bd f2f2 f4|f2ga b2a2 g2f2|cf=eg g4f4:|
|:f2(ga) b2a2 g2f2|e2d2 a2g2 f2e2|d2c2 a2g2 f2e2|c2B2 f2e2 d2c2|
B2FB d2d2d4|d2Bd f2f2f4|f2ga (ba)gf (gf)ed|(ed)cB (AB)cA B4:|

